X: 50
T:Baby Finger Jig, The
M:6/8
L:1/8
R:Double Jig
K:D
BAF AFE|DFD EDB,|A,B,D EDE|FEE E2A|!
BAF AFE|DFD EDB,|A,B,D EDE|1FDD D2F:|2FDD D3|!
|:DFA d3|ede fdB|Adf edB|ABd e2f|!
edB BAF|DFD EDB,|A,B,D EDE|1FDD D3:|2FDD D2F|]!
